X: 17946
T: How Many Today?
R: jig
M: 6/8
K: Gminor
|:~G,3 A,B,C|G,DG, DG,D|{D}E2 E CDE|~D3 DCB,|
~G,3 A,B,C|G,DG, DG,D|F (3EED EDC|DCB, A,FA,:|
B,DB, B,DE|EFF (3FFE D|F^FF (3FF=F E|EFF (3FFE D|
~B,3 B,DE|EFF (3FFE D|^FFF GGG ^GGA AAA|
~B3 Bde|eff (3ffe d|f^ff (3ff=f e|eff (3ffe d|
^fe=f dec dcB|cBA|FGG (3GGF D|CB,A, G,3||

